Yaru++/actions/16/format-node-smooth.svg

<svg viewBox="0 0 24 24" xmlns="http://www.w3.org/2000/svg">
  <path d="m4 10v3h3v-1h1v-1h-1v-1zm13 0v1h-5v1h5v1h3v-3zm-12 1h1v1h-1zm13 0h1v1h-1z" fill="#808080"/>
  <path d="m8 9v4h4v-4zm1 1h2v2h-2z" fill="#1d99f3"/>
</svg>

<svg xmlns="http://www.w3.org/2000/svg" viewBox="0 0 24 24">
 <defs>
  <style id="current-color-scheme" type="text/css">
   .ColorScheme-Text { color:#808080; } .ColorScheme-Highlight { color:#1d99f3; }
  </style>
 </defs>
 <path style="fill:currentColor" class="ColorScheme-Text" d="M 4 10 L 4 13 L 7 13 L 7 12 L 8 12 L 8 11 L 7 11 L 7 10 L 4 10 z M 17 10 L 17 11 L 12 11 L 12 12 L 17 12 L 17 13 L 20 13 L 20 10 L 17 10 z M 5 11 L 6 11 L 6 12 L 5 12 L 5 11 z M 18 11 L 19 11 L 19 12 L 18 12 L 18 11 z"/>
 <path style="fill:currentColor" class="ColorScheme-Highlight" d="M 8 9 L 8 13 L 12 13 L 12 9 L 8 9 z M 9 10 L 11 10 L 11 12 L 9 12 L 9 10 z"/>
</svg>
